X:0
T:Lexie McAskill
C:Dr John McAskill
M:C|
L:1/8
Q:1/2=108
K:Hp
e>a|e2e2   d>ee>d|e2d>B  G>BB>d|e2e2   d>ee>d|e>gf>d e2:|
e>f|g2f2   e2d>B |A2d>B  G>BB>e|g2f2   e2d>B |e>gf>d e2:|
e>a|e2e2   e2d>B |A>AA>B G>AB<d|e2e2   e2d>B |e>gf>d e2:|
g2 |a>ee>a e<ed>B|A2d>B  G>BB>e|a>ee>a e<ed>B|e>gf>d e2:|
